X: 1
T: Hardiman The Fiddler
M: 9/8
L: 1/8
R: slip jig
K: Ador
|:A2G FDE F2G|A2A AGA cAG|A2G FDE F2G|Add ded cAG:|
|Add d2e f2e|Add ded cAG|Add d2e f2g|aff ged cAG|
Add d2e f2e|Add ded cAG|dcA cde f2g|aff ged cAG|
